X: 1
T: Noon Lassies, The
M: 4/4
L: 1/8
R: reel
K: Gmaj
G2BG AGBG|~G2BG GEDE|G2BG AGAB|1 BAGE EDDE:|2 BAGE EDD2||
|:dedB AGAB|dedB BAAB|dedB AGAB|BAGE EDD2:|
|:dgbg agbg|dgbg agef|~g3e dedB|1 BAGE EDD2:|2 BAGE EDDg:|
edBg edBg|edBA GEEg|edBg edBA|GAGE EDDg|
edBg edBg|edBA GEE2|ed (3Bcd efg2|GAGE EDEF||
